X: 25633
T: Martin House, The
R: jig
M: 6/8
K: Gmajor
|:d^c=c|Bcd gdB|cde A2 G|FAc edc|Bcd G2 d/c/|
Bcd gdB|cde A2 a/g/|1 fed cAd|G3:|2 fed cAf|g3||
|:df/g/a|bgd c'af|bgd B2 G|FAc DF/G/A|BGD cAD|
BGd cAf|Bdg b2 a/g/|1 fed cAf|g3:|2 fed cAd|G3||

